X:1
T:Poules de ma Grand-mère
C:PLLP
%%score 1 2
L:1/4
M:4/4
Q:220
K:C
%%stretchlast 1.0
V:1 treble transpose=-2 nm="Clar." snm="Clar."
%%MIDI program 71
V:2 treble nm="Vln." snm="Vln."
%%MIDI program 40
V:1
[K:D]|:"^A" A c e e | f f e2 | d c B d |1 c B c !breath!A :|2 c B A2 :|
|:"^B" A c A c | A c B2 | B d B d |1 c B c !breath!A :|2 c B A2 :|
V:2
[K:C]|: G B d d | e e d2 | c B A c |1 B A B !breath!G :|2 B A G2 :|
|: G B G B | G B A2 | A c A c |1 B A B !breath!G :|2 B A G2 :|
